X: 166
T: Whispering Winds
C:Thornton Spencer (1935-2017)
B: canberra pickers and fiddlers
B: old time tunes update
B: tunes
M:C|
L:1/8
Q: 1/4=100
K:D
V:1 
[D,E]-[D,F]-[D,F][D,G]- [D,3F3]A-|d2 fd e-dd2|[D,E]-[D,F]-[D,F][D,G]- [D,3F3]f|b-faf d4|
[D,E]-[D,F]-[D,F][D,G]- [D,3F3]A-|d2 fd e-d d2|J[A3f3][Aa] [A2f2] ((3fga|b)faf d4||
J[A3f3](A [A2f2])[A2f2]-|[Af]ebf af d2|J[A3f3](a [A2f2])((3fga|b)faf d4|
[A6f6][A2f2]-|[Af]ebf af d2|J[A3f3](a [A2f2])((3fga|b)faf d4||
% abcbook-tune_id 67a7d9ece5fd36d4217bcc87
% abcbook-tune_composer_id 
% abcbook-link-0 https://www.youtube.com/watch?v=Dgvqv4GEjIc
% abcbook-link-title-0 Whitetop Mountain Band - Whispering Winds
% abcbook-boost 0
% abcbook-difficulty 0
% abcbook-tags old time tunes
% abcbook-tablature 
% abcbook-transpose 
% abcbook-tuning DDAE
% abcbook-lastupdated 1739251474744
% abcbook-src-url 
% abcbook-soundfonts 
% abcbook-repeats 1


